assets/spark/icons/TrainFill.svg

<svg viewBox="0 0 24 24" xmlns="http://www.w3.org/2000/svg">
    <path fill-rule="evenodd" clip-rule="evenodd" d="M11.9678 1.99976H11.9573C10.9559 1.99976 10.0213 1.99976 9.00806 2.08183L9.00656 2.08195C8.05346 2.16559 7.18388 2.41603 6.47953 2.66326C5.74366 2.92156 5.17637 3.35064 4.70334 3.76573L4.67989 3.78631L4.66214 3.81248C4.24947 4.42085 4 5.12171 4 5.99115V16.2393C4 17.2772 4.33106 18.1555 4.99641 18.8561C5.53703 19.4254 6.18906 19.7623 6.94324 19.8686L6.46397 20.3733C6.25521 20.5931 6.14252 20.9335 6.25213 21.2798C6.35119 21.5927 6.55559 21.8117 6.8495 21.9201C6.9337 21.9632 7.02685 21.9998 7.1339 21.9998C7.23039 21.9998 7.31559 21.9701 7.39311 21.9326C7.46689 21.9196 7.53741 21.888 7.58765 21.8615C7.66032 21.8233 7.74173 21.7683 7.80383 21.7029L9.58805 19.8241H14.3347L16.1462 21.7315L16.1806 21.7497C16.2124 21.7664 16.2409 21.7835 16.272 21.8024L16.2795 21.807C16.3071 21.8238 16.3402 21.8439 16.3737 21.8615C16.455 21.9043 16.5494 21.9388 16.673 21.9388L16.682 21.9388C16.7521 21.9388 16.8275 21.9388 16.9051 21.9252C16.9873 21.9108 17.064 21.883 17.1505 21.8388C17.4444 21.7304 17.6488 21.5114 17.7479 21.1985C17.8575 20.8522 17.7448 20.5118 17.536 20.292L17.0568 19.7873C17.8109 19.681 18.463 19.3441 19.0036 18.7748C19.6689 18.0742 20 17.1958 20 16.158V6.07249C20 5.12872 19.7541 4.41874 19.3271 3.87907L19.3202 3.87036L19.3125 3.86234C18.8318 3.35615 18.2639 2.92649 17.5313 2.6671C16.8027 2.3284 15.9263 2.16381 14.9934 2.08195C14.0567 1.99976 13.0444 1.99976 11.9678 1.99976ZM6.01962 10.7026V7.13584H10.9516V10.7026H6.01962ZM12.9712 10.7026V7.13584H17.9031V10.7026H12.9712ZM7.17821 15.182C7.17821 14.7683 7.30285 14.5089 7.48334 14.3137C7.76594 14.093 8.02193 13.968 8.33112 13.968C8.72399 13.968 8.9703 14.0992 9.15566 14.2893C9.36531 14.5868 9.48402 14.8564 9.48402 15.182C9.48402 15.5957 9.35938 15.855 9.17889 16.0502C8.8963 16.271 8.6403 16.396 8.33112 16.396C7.99375 16.396 7.75474 16.3304 7.50665 16.0748C7.29695 15.7772 7.17821 15.5076 7.17821 15.182ZM14.4387 15.182C14.4387 14.7682 14.5634 14.5088 14.744 14.3136C14.8918 14.1972 15.0041 14.1153 15.1268 14.0588C15.248 14.003 15.3889 13.968 15.5916 13.968C15.9845 13.968 16.2308 14.0992 16.4162 14.2893C16.6258 14.5868 16.7445 14.8564 16.7445 15.182C16.7445 15.5957 16.6199 15.855 16.4394 16.0502C16.1568 16.271 15.9008 16.396 15.5916 16.396C15.223 16.396 14.9386 16.3155 14.7775 16.0893C14.5614 15.7859 14.4387 15.5129 14.4387 15.182Z"/>
</svg>

<svg viewBox="0 0 24 24" xmlns="http://www.w3.org/2000/svg">
  <path d="m11.97,2h-.01c-1,0-1.94,0-2.95.08h0c-.95.08-1.82.33-2.53.58-.74.26-1.3.69-1.78,1.1l-.02.02-.02.03c-.41.61-.66,1.31-.66,2.18v10.25c0,1.04.33,1.92,1,2.62.54.57,1.19.91,1.95,1.01l-.48.5c-.21.22-.32.56-.21.91.1.31.3.53.6.64.08.04.18.08.28.08.1,0,.18-.03.26-.07.07-.01.14-.04.19-.07.07-.04.15-.09.22-.16l1.78-1.88h4.75l1.81,1.91.03.02s.06.03.09.05h0s.06.04.09.06c.08.04.18.08.3.08h0c.07,0,.15,0,.22-.01.08-.01.16-.04.25-.09.29-.11.5-.33.6-.64.11-.35,0-.69-.21-.91l-.48-.5c.75-.11,1.41-.44,1.95-1.01.67-.7,1-1.58,1-2.62V6.07c0-.94-.25-1.65-.67-2.19h0s0-.02,0-.02c-.48-.51-1.05-.94-1.78-1.2-.73-.34-1.6-.5-2.54-.59-.94-.08-1.95-.08-3.03-.08Zm-5.95,8.7v-3.57h4.93v3.57h-4.93Zm6.95,0v-3.57h4.93v3.57h-4.93Zm-5.79,4.48c0-.41.12-.67.31-.87.28-.22.54-.35.85-.35.39,0,.64.13.82.32.21.3.33.57.33.89,0,.41-.12.67-.31.87-.28.22-.54.35-.85.35-.34,0-.58-.07-.82-.32-.21-.3-.33-.57-.33-.89Zm7.26,0c0-.41.12-.67.31-.87.15-.12.26-.2.38-.25.12-.06.26-.09.46-.09.39,0,.64.13.82.32.21.3.33.57.33.89,0,.41-.12.67-.31.87-.28.22-.54.35-.85.35-.37,0-.65-.08-.81-.31-.22-.3-.34-.58-.34-.91Z"/>
</svg>
